X:7417
T:the Topcroft Reel
O:england
M:C
A:North-West
R:Reel
K:A
E|\
A2cA FADF| EGBd dcBA| fAaA ecAc| FGAB AGFE| \
A2cA FADF| EGBd dcBA| fAaA ecAc| EAGB A3::\
d|\
cBcd eaga| gfed cBAG| FEFG Acec| BcBA AGFE| \
A2cA FADF| EGBd dcBA| fAaA ecAc| EAGB A3:|


